SVG_Azure_Grouped/Management/Intelligent Recommendations Account.svg

<?xml version="1.0" encoding="UTF-8" standalone="no"?>
<!-- Generated by Microsoft Visio, SVG Export Intelligent Recommendations Account.svg Page-1 -->

<svg
   xmlns:dc="http://purl.org/dc/elements/1.1/"
   xmlns:cc="http://creativecommons.org/ns#"
   xmlns:rdf="http://www.w3.org/1999/02/22-rdf-syntax-ns#"
   xmlns:svg="http://www.w3.org/2000/svg"
   xmlns="http://www.w3.org/2000/svg"
   xmlns:sodipodi="http://sodipodi.sourceforge.net/DTD/sodipodi-0.dtd"
   xmlns:inkscape="http://www.inkscape.org/namespaces/inkscape"
   width="0.78744513in"
   height="0.69630164in"
   viewBox="0 0 56.696214 50.133661"
   xml:space="preserve"
   class="st6"
   version="1.1"
   id="svg65"
   sodipodi:docname="Intelligent Recommendations Account.svg"
   style="font-size:12px;overflow:visible;color-interpolation-filters:sRGB;fill:none;fill-rule:evenodd;stroke-linecap:square;stroke-miterlimit:3"
   inkscape:version="0.92.5 (2060ec1f9f, 2020-04-08)"><metadata
   id="metadata69"><rdf:RDF><cc:Work
       rdf:about=""><dc:format>image/svg+xml</dc:format><dc:type
         rdf:resource="http://purl.org/dc/dcmitype/StillImage" /></cc:Work></rdf:RDF></metadata><sodipodi:namedview
   pagecolor="#ffffff"
   bordercolor="#666666"
   borderopacity="1"
   objecttolerance="10"
   gridtolerance="10"
   guidetolerance="10"
   inkscape:pageopacity="0"
   inkscape:pageshadow="2"
   inkscape:window-width="640"
   inkscape:window-height="480"
   id="namedview67"
   showgrid="false"
   inkscape:zoom="1.7182611"
   inkscape:cx="37.796441"
   inkscape:cy="20.836743"
   inkscape:window-x="0"
   inkscape:window-y="0"
   inkscape:window-maximized="0"
   inkscape:current-layer="svg65" />
	<style
   type="text/css"
   id="style2">
	<![CDATA[
		.st1 {fill:url(#grad0-6);stroke:none;stroke-linecap:butt;stroke-width:17}
		.st2 {fill:#000000;fill-opacity:0.16;stroke:none;stroke-linecap:butt;stroke-width:17}
		.st3 {fill:#000000;fill-opacity:0.12;stroke:none;stroke-linecap:butt;stroke-width:17}
		.st4 {fill:url(#grad0-14);stroke:none;stroke-linecap:butt;stroke-width:17}
		.st5 {fill:url(#grad0-22);stroke:none;stroke-linecap:butt;stroke-width:17}
		.st6 {fill:none;fill-rule:evenodd;font-size:12px;overflow:visible;stroke-linecap:square;stroke-miterlimit:3}
	]]>
	</style>

	<defs
   id="Patterns_And_Gradients">
		<linearGradient
   id="grad0-6"
   x1="-0.0009059714"
   y1="54.25113"
   x2="53.31326"
   y2="54.25113"
   gradientTransform="scale(1.0634362,0.94034791)"
   gradientUnits="userSpaceOnUse">
			<stop
   offset="0"
   stop-color="#0a5932"
   stop-opacity="1"
   id="stop4" />
			<stop
   offset="1"
   stop-color="#33990f"
   stop-opacity="1"
   id="stop6" />
		</linearGradient>
		<linearGradient
   id="grad0-14"
   x1="0"
   y1="64.645752"
   x2="38.039814"
   y2="64.645752"
   gradientTransform="scale(0.99685046,1.0031595)"
   gradientUnits="userSpaceOnUse">
			<stop
   offset="0"
   stop-color="#63d237"
   stop-opacity="1"
   id="stop9" />
			<stop
   offset="1"
   stop-color="#37b659"
   stop-opacity="1"
   id="stop11" />
		</linearGradient>
		<linearGradient
   id="grad0-22"
   x1="-1.7819134e-15"
   y1="74.161815"
   x2="28.52836"
   y2="74.161815"
   gradientTransform="scale(0.99688167,1.0031281)"
   gradientUnits="userSpaceOnUse">
			<stop
   offset="0"
   stop-color="#daff70"
   stop-opacity="1"
   id="stop14" />
			<stop
   offset="1"
   stop-color="#63cd13"
   stop-opacity="1"
   id="stop16" />
		</linearGradient>
	</defs>
	<g
   id="g63"
   transform="translate(-16.999037,-16.999446)">
		<title
   id="title20">Page-1</title>
		<g
   id="group12338-1"
   transform="translate(17,-34.0157)">
			<title
   id="title22">Intelligent Recommendations Account.12338</title>
			<g
   id="group12339-2">
				<title
   id="title24">Sheet.12339</title>
				<g
   id="shape12340-3">
					<title
   id="title26">Sheet.12340</title>
					<path
   d="M 41.75,56.6 C 34.37,49.18 22.42,49.15 15.01,56.53 L 3.07,68.55 a 10.6648,10.7316 -180 0 0 0,15.07 l 11.94,12.01 c 7.41,7.38 19.36,7.36 26.74,-0.07 L 53.57,83.67 a 10.6648,10.7316 -180 0 0 0,-15.18 z"
   class="st1"
   id="path28"
   inkscape:connector-curvature="0"
   style="fill:url(#grad0-6);stroke:none;stroke-width:17;stroke-linecap:butt" />
				</g>
				<g
   id="shape12341-7"
   transform="translate(9.38707,-7.05423)">
					<title
   id="title31">Sheet.12341</title>
					<path
   d="M 33.55,64.85 H 18.96 C 8.49,64.85 0,73.4 0,83.93 v 13.1 l 5.63,5.66 c 0.11,0.11 0.22,0.22 0.33,0.32 h 13 c 10.47,0 18.96,-8.54 18.96,-19.08 V 69.25 Z"
   class="st2"
   id="path33"
   inkscape:connector-curvature="0"
   style="fill:#000000;fill-opacity:0.16000001;stroke:none;stroke-width:17;stroke-linecap:butt" />
				</g>
				<g
   id="shape12342-9"
   transform="translate(8.59709,-6.26089)">
					<title
   id="title36">Sheet.12342</title>
					<path
   d="M 33.55,63.26 H 19.75 C 8.84,63.26 0,72.16 0,83.14 v 12.3 l 1.58,1.59 V 83.14 c 0,-10.1 8.14,-18.29 18.17,-18.29 h 15.38 z m 4.37,4.4 v 15.48 c 0,10.1 -8.14,18.28 -18.17,18.28 H 5.95 l 0.47,0.48 c 0.39,0.39 0.8,0.76 1.22,1.11 h 12.11 c 10.91,0 19.75,-8.9 19.75,-19.87 V 69.25 Z"
   class="st3"
   id="path38"
   inkscape:connector-curvature="0"
   style="fill:#000000;fill-opacity:0.12000002;stroke:none;stroke-width:17;stroke-linecap:butt" />
				</g>
				<g
   id="shape12343-11"
   transform="translate(9.38707,-7.85075)">
					<title
   id="title41">Sheet.12343</title>
					<path
   d="m 2.37,103.01 h 16.59 c 10.47,0 18.96,-8.54 18.96,-19.08 V 67.24 A 2.36995,2.3848 -180 0 0 35.55,64.85 H 18.96 C 8.49,64.85 0,73.4 0,83.93 v 16.7 a 2.36995,2.3848 -180 0 0 2.37,2.38 z"
   class="st4"
   id="path43"
   inkscape:connector-curvature="0"
   style="fill:url(#grad0-14);stroke:none;stroke-width:17;stroke-linecap:butt" />
				</g>
				<g
   id="shape12344-15"
   transform="translate(14.127,-11.8254)">
					<title
   id="title46">Sheet.12344</title>
					<path
   d="m 28.44,88.7 a 14.22,14.309102 0 1 1 -28.44,0 14.22,14.309102 0 0 1 28.44,0 z"
   class="st2"
   id="path48"
   inkscape:connector-curvature="0"
   style="fill:#000000;fill-opacity:0.16000001;stroke:none;stroke-width:17;stroke-linecap:butt" />
				</g>
				<g
   id="shape12345-17"
   transform="translate(13.337,-11.0305)">
					<title
   id="title51">Sheet.12345</title>
					<path
   d="m 15.01,74.39 a 13.430793,13.515 -180 1 0 0,27.03 13.430793,13.515 -180 0 0 0,-27.03 z M 0,87.91 a 15.01,15.104002 0 1 1 30.02,0 15.01,15.104002 0 1 1 -30.02,0 z"
   class="st3"
   id="path53"
   inkscape:connector-curvature="0"
   style="fill:#000000;fill-opacity:0.12000002;stroke:none;stroke-width:17;stroke-linecap:butt" />
				</g>
				<g
   id="shape12346-19"
   transform="translate(14.127,-12.6203)">
					<title
   id="title56">Sheet.12346</title>
					<ellipse
   cx="14.2197"
   cy="88.702599"
   rx="14.2197"
   ry="14.3088"
   class="st5"
   id="ellipse58"
   style="fill:url(#grad0-22);stroke:none;stroke-width:17;stroke-linecap:butt" />
				</g>
			</g>
		</g>
	</g>
</svg>

<?xml version="1.0" encoding="UTF-8" standalone="no"?>
<!DOCTYPE svg PUBLIC "-//W3C//DTD SVG 1.1//EN" "http://www.w3.org/Graphics/SVG/1.1/DTD/svg11.dtd">
<!-- Generated by Microsoft Visio, SVG Export Intelligent Recommendations Account.svg Page-1 -->
<svg xmlns="http://www.w3.org/2000/svg" xmlns:xlink="http://www.w3.org/1999/xlink" xmlns:ev="http://www.w3.org/2001/xml-events"
		width="1.25962in" height="1.43071in" viewBox="0 0 90.6929 103.011" xml:space="preserve" color-interpolation-filters="sRGB"
		class="st6">
	<style type="text/css">
	<![CDATA[
		.st1 {fill:url(#grad0-6);stroke:none;stroke-linecap:butt;stroke-width:17}
		.st2 {fill:#000000;fill-opacity:0.16;stroke:none;stroke-linecap:butt;stroke-width:17}
		.st3 {fill:#000000;fill-opacity:0.12;stroke:none;stroke-linecap:butt;stroke-width:17}
		.st4 {fill:url(#grad0-14);stroke:none;stroke-linecap:butt;stroke-width:17}
		.st5 {fill:url(#grad0-22);stroke:none;stroke-linecap:butt;stroke-width:17}
		.st6 {fill:none;fill-rule:evenodd;font-size:12px;overflow:visible;stroke-linecap:square;stroke-miterlimit:3}
	]]>
	</style>

	<defs id="Patterns_And_Gradients">
		<linearGradient id="grad0-6" x1="0" y1="0" x2="1" y2="0" gradientTransform="rotate(-98.092586829713 0.5 0.5)">
			<stop offset="0" stop-color="#0a5932" stop-opacity="1"/>
			<stop offset="1" stop-color="#33990f" stop-opacity="1"/>
		</linearGradient>
		<linearGradient id="grad0-14" x1="0" y1="0" x2="1" y2="0" gradientTransform="rotate(63.50791279039 0.5 0.5)">
			<stop offset="0" stop-color="#63d237" stop-opacity="1"/>
			<stop offset="1" stop-color="#37b659" stop-opacity="1"/>
		</linearGradient>
		<linearGradient id="grad0-22" x1="0" y1="0" x2="1" y2="0" gradientTransform="rotate(53.947279512916 0.5 0.5)">
			<stop offset="0" stop-color="#daff70" stop-opacity="1"/>
			<stop offset="1" stop-color="#63cd13" stop-opacity="1"/>
		</linearGradient>
	</defs>
	<g>
		<title>Page-1</title>
		<g id="group12056-1" transform="translate(17,-34.0157)">
			<title>Intelligent Recommendations Account.12056</title>
			<g id="group12057-2">
				<title>Sheet.12057</title>
				<g id="shape12058-3">
					<title>Sheet.12058</title>
					<path d="M41.75 56.6 C34.37 49.18 22.42 49.15 15.01 56.53 L3.07 68.55 A10.6648 10.7316 -180 0 0 3.07 83.62 L15.01
								 95.63 C22.42 103.01 34.37 102.99 41.75 95.56 L53.57 83.67 A10.6648 10.7316 -180 0 0 53.57 68.49
								 L41.75 56.6 Z" class="st1"/>
				</g>
				<g id="shape12059-7" transform="translate(9.38707,-7.05423)">
					<title>Sheet.12059</title>
					<path d="M33.55 64.85 L18.96 64.85 C8.49 64.85 0 73.4 0 83.93 L0 97.03 L5.63 102.69 C5.74 102.8 5.85 102.91 5.96
								 103.01 L18.96 103.01 C29.43 103.01 37.92 94.47 37.92 83.93 L37.92 69.25 L33.55 64.85 Z"
							class="st2"/>
				</g>
				<g id="shape12060-9" transform="translate(8.59709,-6.26089)">
					<title>Sheet.12060</title>
					<path d="M33.55 63.26 L19.75 63.26 C8.84 63.26 0 72.16 0 83.14 L0 95.44 L1.58 97.03 L1.58 83.14 C1.58 73.04 9.72
								 64.85 19.75 64.85 L35.13 64.85 L33.55 63.26 ZM37.92 67.66 L37.92 83.14 C37.92 93.24 29.78 101.42
								 19.75 101.42 L5.95 101.42 L6.42 101.9 C6.81 102.29 7.22 102.66 7.64 103.01 L19.75 103.01 C30.66
								 103.01 39.5 94.11 39.5 83.14 L39.5 69.25 L37.92 67.66 Z" class="st3"/>
				</g>
				<g id="shape12061-11" transform="translate(9.38707,-7.85075)">
					<title>Sheet.12061</title>
					<path d="M2.37 103.01 L18.96 103.01 C29.43 103.01 37.92 94.47 37.92 83.93 L37.92 67.24 A2.36995 2.3848 -180 0
								 0 35.55 64.85 L18.96 64.85 C8.49 64.85 0 73.4 0 83.93 L0 100.63 A2.36995 2.3848 -180 0 0 2.37 103.01
								 Z" class="st4"/>
				</g>
				<g id="shape12062-15" transform="translate(14.127,-11.8254)">
					<title>Sheet.12062</title>
					<path d="M28.44 88.7 A14.2197 14.3088 0 1 1 0 88.7 A14.2197 14.3088 0 0 1 28.44 88.7 Z" class="st2"/>
				</g>
				<g id="shape12063-17" transform="translate(13.337,-11.0305)">
					<title>Sheet.12063</title>
					<path d="M15.01 74.39 A13.4297 13.5139 -180 1 0 15.01 101.42 A13.4297 13.5139 -180 0 0 15.01 74.39 ZM0 87.91
								 A15.0097 15.1037 0 1 1 30.02 87.91 A15.0097 15.1037 0 1 1 0 87.91 Z" class="st3"/>
				</g>
				<g id="shape12064-19" transform="translate(14.127,-12.6203)">
					<title>Sheet.12064</title>
					<ellipse cx="14.2197" cy="88.7026" rx="14.2197" ry="14.3088" class="st5"/>
				</g>
			</g>
		</g>
	</g>
</svg>
